assets/svg/log-out.svg

<svg fill="none" height="24" viewBox="0 0 24 24" width="24" xmlns="http://www.w3.org/2000/svg"><path d="m16 17 5-5m0 0-5-5m5 5h-12m0-9h-1.2c-1.68016 0-2.52024 0-3.16197.32698-.56449.28762-1.02343.74656-1.31105 1.31105-.32698.64173-.32698 1.48181-.32698 3.16197v8.4c0 1.6802 0 2.5202.32698 3.162.28762.5645.74656 1.0234 1.31105 1.311.64173.327 1.48181.327 3.16197.327h1.2" stroke="#000" stroke-linecap="round" stroke-linejoin="round" stroke-width="2"/></svg>

<svg width="24" height="24" viewBox="0 0 24 24" fill="none" xmlns="http://www.w3.org/2000/svg">
<path d="M16 17L21 12M21 12L16 7M21 12H9M9 3H7.8C6.11984 3 5.27976 3 4.63803 3.32698C4.07354 3.6146 3.6146 4.07354 3.32698 4.63803C3 5.27976 3 6.11984 3 7.8V16.2C3 17.8802 3 18.7202 3.32698 19.362C3.6146 19.9265 4.07354 20.3854 4.63803 20.673C5.27976 21 6.11984 21 7.8 21H9" stroke="black" stroke-width="2" stroke-linecap="round" stroke-linejoin="round"/>
</svg>
